X:1
T: The Belles of Campbelltown
T: Lady Lemon's Strathspey
R:Strathspey
Q:128
K:D
M:4/4
L:1/16
|:f2|ad3 a3f ad3 a3f|ad3 a3f be3 e3f|ad3 a3f ad3 a3f|g3b a3g fd3 d3f|
ad3 a3f ad3 a3f|ad3 a3f be3 e3f|ad3 a3f ad3 a3f|g3b a3g fd3 d2f2|
A3d F3d A3d f3d|A3d F3d eE3 E3d|A3d F3d A3d f3d|gab2 a3g fd3 d3f|
A3d F3d A3d f3d|A3d F3d eE3 E2fg|a3f g3e f3d e3c|A3B d3e fd3 d2:|
